X: 38
T: No_33_Turkey_Dance_Song_(d).krn
N: Derived from No_33_Turkey_Dance_Song_(d).krn
%%abc-version 2.0
%%abcx-abcm2ps-target-version 5.9.1 (29 Sep 2008)
%%abc-creator hum2abc beta
%%abcx-conversion-date 2019/03/15 08:36:49
%%humdrum-veritas 4266268466
%%humdrum-veritas-data 3722633398
%%linebreak <none>
%%barnumbers 0
L: 1/8
M: 3/4
%%staves {1 2}
V: 1 clef=bass
V: 2 clef=bass
K: Eb
[V:1] [K:clef=bass][M:3/4]F4E/F3/ ||  
[V:2] [K:clef=bass][M:3/4]G,,G,, G,,G,, G,,G,, ||  
[V:1] [M:2/4]E3//F//E B,3/B,/ ||  
[V:2] [M:2/4]z4 ||  
[V:1] [M:3/4]B,4-B,3/E/ ||  
[V:2] [M:3/4]z6 ||  
[V:1] [M:2/4]!fermata!B,3E ||  
[V:2] [M:2/4]z4 ||  
[V:1] [M:3/4]D4C/F3/ ||  
[V:2] [M:3/4]z6 ||  
[V:1] [M:2/4]E3//F//EB,2- | 
[V:2] [M:2/4]z4 | 
[V:1] B,2A,/B,3/ | 
[V:2] z4 | 
[V:1] A,3//B,//A, F,3/F,/ ||  
[V:2] z4 ||  
[V:1] [M:3/4]F,4-F,3/A,/ ||  
[V:2] [M:3/4]z6 ||  
[V:1] [M:2/4]!fermata!F,3A, ||  
[V:2] [M:2/4]z4 ||  
[V:1] [M:3/4]F,4E,/F,3/ ||  
[V:2] [M:3/4]z6 ||  
[V:1] [M:2/4]E,3//F,//E,B,,2 | 
[V:2] [M:2/4]z4 | 
[V:1] B,,4 |]  
[V:2] z4 |]  



